Catalina-light/actions/22/view-time-schedule-edit.svg

<svg viewBox="0 0 22 22" xmlns="http://www.w3.org/2000/svg">
<defs>
<style id="current-color-scheme" type="text/css">.ColorScheme-Text {
        color:#4d4d4d
      }</style>
</defs>
<path class="ColorScheme-Text" d="m4 3c-0.55402 0-1 0.44598-1 1v14c0 0.55402 0.44598 1 1 1h14c0.55402 0 1-0.44598 1-1v-14c0-0.55402-0.44598-1-1-1h-14zm10.285 3c0.0901 0 0.17633 0.0358 0.24023 0.0996l1.375 1.375c0.133 0.13304 0.133 0.34743 0 0.48047l-0.76758 0.76758-1.8555-1.8555 0.76758-0.76758c0.0639-0.0639 0.15009-0.0996 0.24024-0.0996zm-1.248 1.1074 1.8555 1.8555-0.26563 0.26758-1.8555-1.8574 0.26563-0.26563zm-0.50781 0.50781 1.8574 1.8555-0.26758 0.26563-1.8555-1.8555 0.26563-0.26563zm-0.50782 0.50586 1.8574 1.8574-5.2285 5.2285c-0.0372 0.0373-0.0827 0.0651-0.13281 0.082l-2.0684 0.69336c-0.0356 0.012-0.0712 0.0176-0.10742 0.0176-0.0888 0-0.17739-0.0347-0.24219-0.0996-0.0915-0.0915-0.12292-0.22686-0.082-0.34961l0.69336-2.0684c0.0169-0.0498 0.0448-0.0955 0.082-0.13281l5.2285-5.2285z" fill="currentColor"/>
</svg>

<svg xmlns="http://www.w3.org/2000/svg" viewBox="0 0 22 22">
  <defs id="defs3051">
    <style type="text/css" id="current-color-scheme">
      .ColorScheme-Text {
        color:#4d4d4d
      }
      </style>
  </defs>
 <path 
     style="fill:currentColor;fill-opacity:1;stroke:none"      
	 class="ColorScheme-Text"
        d="M 4,3 C 3.44598,3 3,3.44598 3,4 l 0,14 c 0,0.55402 0.44598,1 1,1 l 14,0 c 0.55402,0 1,-0.44598 1,-1 L 19,4 C 19,3.44598 18.55402,3 18,3 L 4,3 Z m 10.28516,3 c 0.0901,0 0.17633,0.0358 0.24023,0.0996 l 1.375,1.375 c 0.133,0.13304 0.133,0.34743 0,0.48047 L 15.13281,8.72265 13.27734,6.86718 14.04492,6.0996 C 14.10882,6.0357 14.19501,6 14.28516,6 Z M 13.03711,7.10742 14.89258,8.96289 14.62695,9.23047 12.77148,7.37305 13.03711,7.10742 Z M 12.5293,7.61523 14.38672,9.4707 14.11914,9.73633 12.26367,7.88086 12.5293,7.61523 Z m -0.50782,0.50586 1.85743,1.85743 -5.22852,5.22851 c -0.0372,0.0373 -0.0827,0.0651 -0.13281,0.082 l -2.06836,0.69336 c -0.0356,0.012 -0.0712,0.0176 -0.10742,0.0176 -0.0888,0 -0.17739,-0.0347 -0.24219,-0.0996 -0.0915,-0.0915 -0.12292,-0.22686 -0.082,-0.34961 l 0.69336,-2.06836 c 0.0169,-0.0498 0.0448,-0.0955 0.082,-0.13281 l 5.22851,-5.22852 z"
     />
</svg>
